dist/svg/u1F685.svg

<?xml version="1.0" encoding="UTF-8"?><svg id="Layer_1" xmlns="http://www.w3.org/2000/svg" viewBox="0 0 40 40"><g style="opacity:0;"><rect width="40" height="40" style="fill:none;"/></g><path d="M33.90539,26.91835l3.32719,4.56585c.38382,.52671,.0076,1.26638-.64412,1.26638H2.96364c-.5322,0-.96364-.43144-.96364-.96364v-4.86859h31.90539Z" style="fill:#2d67d5;"/><g><path d="M11.99963,14.40308H3.97046c-1.08826,0-1.97046,.58606-1.97046,1.30908v11.54382c0,.72302,.8822,1.3092,1.97046,1.3092h30.95087v-7.08105c-5.11395-4.17993-15.5332-7.08105-22.92169-7.08105Z" style="fill:#c8e1ff;"/><path d="M34.92133,21.48413v7.08105h.12305l1.23101-1.28494c1.2021-1.25476,1.18443-3.23918-.03983-4.47234l-1.31423-1.32378Z" style="fill:#2d67d5;"/></g><path d="M28.38085,19.09632l-7.33135-7.33135c-2.94357-2.94357-6.93591-4.59725-11.09875-4.59725H3c-.55228,0-1,.44772-1,1v10.9286H28.38085Z" style="fill:#c8e1ff;"/><path d="M10.5032,14.3317l1.11332,1.56025c.56305,.78908,1.47268,1.25747,2.44204,1.25747h12.37539l-4.39856-4.39856H11.31722c-.81315,0-1.28633,.91893-.81401,1.58084Z" style="fill:#313d4c;"/><path d="M2,23.03496h15.65055c1.06087,0,2.07828,.42143,2.82843,1.17157l4.35865,4.35865H2v-5.53022Z" style="fill:#64a7ff;"/></svg>

<svg id="Layer_1" data-name="Layer 1" xmlns="http://www.w3.org/2000/svg" viewBox="0 0 40 40"><defs><style>.cls-1{fill:none;opacity:0;}.cls-2{fill:#2d67d5;}.cls-3{fill:#c8e1ff;}.cls-4{fill:#313d4c;}.cls-5{fill:#64a7ff;}</style></defs><rect class="cls-1" width="40" height="40"/><path class="cls-2" d="M33.905,26.918l3.328,4.566a.8.8,0,0,1-.645,1.267H2.964A.964.964,0,0,1,2,31.787V26.918Z"/><path class="cls-3" d="M12,14.4H3.97C2.882,14.4,2,14.989,2,15.712V27.256c0,.723.882,1.309,1.97,1.309H34.921V21.484C29.807,17.3,19.388,14.4,12,14.4Z"/><path class="cls-2" d="M34.921,21.484v7.081h.123l1.231-1.285a3.2,3.2,0,0,0-.039-4.472Z"/><path class="cls-3" d="M28.381,19.1l-7.332-7.331a15.691,15.691,0,0,0-11.1-4.6H3a1,1,0,0,0-1,1V19.1Z"/><path class="cls-4" d="M10.5,14.332l1.114,1.56a3,3,0,0,0,2.442,1.257H26.434l-4.4-4.4H11.317A1,1,0,0,0,10.5,14.332Z"/><path class="cls-5" d="M2,23.035H17.651a4,4,0,0,1,2.828,1.172l4.359,4.358H2Z"/></svg>
